germany/districts/5762.svg

<?xml version="1.0" encoding="UTF-8" standalone="no"?>
<!-- Created with Inkscape (http://www.inkscape.org/) -->
<svg
   xmlns:dc="http://purl.org/dc/elements/1.1/"
   xmlns:cc="http://creativecommons.org/ns#"
   xmlns:rdf="http://www.w3.org/1999/02/22-rdf-syntax-ns#"
   xmlns:svg="http://www.w3.org/2000/svg"
   xmlns="http://www.w3.org/2000/svg"
   xmlns:sodipodi="http://sodipodi.sourceforge.net/DTD/sodipodi-0.dtd"
   xmlns:inkscape="http://www.inkscape.org/namespaces/inkscape"
   id="svg2"
   sodipodi:version="0.32"
   inkscape:version="0.46"
   width="405"
   height="466"
   version="1.0"
   sodipodi:docname="Kreiswappen_des_Kreises_Höxter.svg"
   inkscape:output_extension="org.inkscape.output.svg.inkscape">
  <metadata
     id="metadata7">
    <rdf:RDF>
      <cc:Work
         rdf:about="">
        <dc:format>image/svg+xml</dc:format>
        <dc:type
           rdf:resource="http://purl.org/dc/dcmitype/StillImage" />
        <dc:title>Wappen des Kreises Hoexter</dc:title>
      </cc:Work>
    </rdf:RDF>
  </metadata>
  <defs
     id="defs5">
    <inkscape:perspective
       sodipodi:type="inkscape:persp3d"
       inkscape:vp_x="0 : 526.18109 : 1"
       inkscape:vp_y="0 : 1000 : 0"
       inkscape:vp_z="744.09448 : 526.18109 : 1"
       inkscape:persp3d-origin="372.04724 : 350.78739 : 1"
       id="perspective9" />
    <inkscape:perspective
       id="perspective3445"
       inkscape:persp3d-origin="320 : 160 : 1"
       inkscape:vp_z="640 : 240 : 1"
       inkscape:vp_y="0 : 1000 : 0"
       inkscape:vp_x="0 : 240 : 1"
       sodipodi:type="inkscape:persp3d" />
    <inkscape:perspective
       sodipodi:type="inkscape:persp3d"
       inkscape:vp_x="0 : 526.18109 : 1"
       inkscape:vp_y="0 : 1000 : 0"
       inkscape:vp_z="744.09448 : 526.18109 : 1"
       inkscape:persp3d-origin="372.04724 : 350.78739 : 1"
       id="perspective2557" />
    <inkscape:perspective
       sodipodi:type="inkscape:persp3d"
       inkscape:vp_x="0 : 526.18109 : 1"
       inkscape:vp_y="0 : 1000 : 0"
       inkscape:vp_z="744.09448 : 526.18109 : 1"
       inkscape:persp3d-origin="372.04724 : 350.78739 : 1"
       id="perspective5565" />
    <inkscape:perspective
       id="perspective4401"
       inkscape:persp3d-origin="320 : 160 : 1"
       inkscape:vp_z="640 : 240 : 1"
       inkscape:vp_y="0 : 1000 : 0"
       inkscape:vp_x="0 : 240 : 1"
       sodipodi:type="inkscape:persp3d" />
    <inkscape:perspective
       id="perspective2576"
       inkscape:persp3d-origin="372.04724 : 350.78739 : 1"
       inkscape:vp_z="744.09448 : 526.18109 : 1"
       inkscape:vp_y="0 : 1000 : 0"
       inkscape:vp_x="0 : 526.18109 : 1"
       sodipodi:type="inkscape:persp3d" />
  </defs>
  <sodipodi:namedview
     inkscape:window-height="683"
     inkscape:window-width="898"
     inkscape:pageshadow="2"
     inkscape:pageopacity="0.0"
     guidetolerance="10.0"
     gridtolerance="10.0"
     objecttolerance="10.0"
     borderopacity="1.0"
     bordercolor="#666666"
     pagecolor="#ffffff"
     id="base"
     showgrid="false"
     inkscape:zoom="1"
     inkscape:cx="240.15091"
     inkscape:cy="220.38752"
     inkscape:window-x="112"
     inkscape:window-y="7"
     inkscape:current-layer="svg2"
     showguides="true"
     inkscape:guide-bbox="true" />
  <path
     style="opacity:1;fill:#fcdd09;fill-opacity:1;fill-rule:nonzero;stroke:none;stroke-width:5;stroke-linecap:butt;stroke-linejoin:miter;marker:none;marker-start:none;marker-mid:none;marker-end:none;stroke-miterlimit:4;stroke-dasharray:none;stroke-dashoffset:0;stroke-opacity:1;visibility:visible;display:inline;overflow:visible;enable-background:accumulate"
     d="M 3.49751,3.5 L 2.5,182.5 L 402.5,182.5 L 402.5,3.5 L 3.49751,3.5 z"
     id="schildhaupt"
     sodipodi:nodetypes="ccccc" />
  <path
     style="opacity:1;fill:#e83629;fill-opacity:1;fill-rule:nonzero;stroke:#000000;stroke-width:3;stroke-linecap:butt;stroke-linejoin:miter;marker:none;marker-start:none;marker-mid:none;marker-end:none;stroke-miterlimit:4;stroke-dasharray:none;stroke-dashoffset:0;stroke-opacity:1;visibility:visible;display:inline;overflow:visible;enable-background:accumulate"
     d="M 183.5,3.5 L 183.5,73.5 L 2.5,73.5 L 2.5,107.5 L 183.5,107.5 L 183.5,183.5 L 219.5,183.5 L 219.5,107.5 L 402.5,107.5 L 402.5,73.5 L 219.5,73.5 L 219.5,3.5 L 183.5,3.5 z"
     id="kreuz"
     sodipodi:nodetypes="ccccccccccccc" />
  <path
     style="opacity:1;fill:#ffffff;fill-opacity:1;fill-rule:nonzero;stroke:none;stroke-width:5;stroke-linecap:butt;stroke-linejoin:miter;marker:none;marker-start:none;marker-mid:none;marker-end:none;stroke-miterlimit:4;stroke-dasharray:none;stroke-dashoffset:0;stroke-opacity:1;visibility:visible;display:inline;overflow:visible;enable-background:accumulate"
     d="M 3.49751,182.5 L 2.5,302.84924 C 2.5,391.84976 91.97631,463.5 202.5,463.5 C 313.02369,463.5 402.5,391.84976 402.5,302.84924 L 402.5,182.5 L 3.49751,182.5 z"
     id="feld"
     sodipodi:nodetypes="ccsccc" />
  <path
     style="opacity:1;fill:#0f47af;fill-opacity:1;fill-rule:nonzero;stroke:#000000;stroke-width:3;stroke-linecap:butt;stroke-linejoin:miter;marker:none;marker-start:none;marker-mid:none;marker-end:none;stroke-miterlimit:4;stroke-dasharray:none;stroke-dashoffset:0;stroke-opacity:1;visibility:visible;display:inline;overflow:visible;enable-background:accumulate"
     d="M 137.5,163.49995 C 103.73694,163.46789 101.26311,180.53202 67.5,180.49995 C 35.495574,180.46956 31.575574,165.26891 2.5,163.6562 L 2.5,196.6562 C 31.575572,198.26891 35.495558,213.46955 67.5,213.49995 C 101.2631,213.53205 103.73689,196.46787 137.5,196.49995 C 171.26308,196.53204 168.73691,213.46788 202.5,213.49995 C 236.26309,213.53205 238.73689,196.46787 272.5,196.49995 C 306.26308,196.53203 303.73692,213.46788 337.5,213.49995 C 369.50481,213.53038 373.42354,198.19456 402.5,196.62495 L 402.5,163.62495 C 373.42352,165.19458 369.5048,180.53035 337.5,180.49995 C 303.7369,180.46789 306.26308,163.53202 272.5,163.49995 C 238.7369,163.46789 236.2631,180.53202 202.5,180.49995 C 168.73694,180.46788 171.26307,163.53203 137.5,163.49995 z"
     id="wellenbalken1" />
  <path
     style="opacity:1;fill:none;fill-opacity:1;fill-rule:nonzero;stroke:#000000;stroke-width:5;stroke-linecap:butt;stroke-linejoin:miter;marker:none;marker-start:none;marker-mid:none;marker-end:none;stroke-miterlimit:4;stroke-dasharray:none;stroke-dashoffset:0;stroke-opacity:1;visibility:visible;display:inline;overflow:visible;enable-background:accumulate"
     d="M 3.49751,2.5 L 2.5,302.5 C 2.5,391.694 91.97631,463.5 202.5,463.5 C 313.02369,463.5 402.5,391.694 402.5,302.5 L 402.5,2.5 L 3.49751,2.5 z"
     id="schildrahmen"
     sodipodi:nodetypes="ccsccc" />
  <g
     transform="matrix(0.5739029,0,0,0.5023024,19.354546,216.72246)"
     id="lilie">
    <rect
       style="opacity:1;fill:#0f47af;fill-opacity:1;stroke:#242728;stroke-width:5.58752421999999970;stroke-miterlimit:4;stroke-dasharray:none;stroke-opacity:1"
       id="rect2584"
       width="74.063187"
       height="13.605331"
       x="282.96841"
       y="273.22736"
       ry="5.3165488" />
    <rect
       style="opacity:1;fill:#0f47af;fill-opacity:1;stroke:#242728;stroke-width:5.58752421999999970;stroke-miterlimit:4;stroke-dasharray:none;stroke-opacity:1"
       id="rect2590"
       width="87.633926"
       height="14.617814"
       x="276.18304"
       y="287.1983"
       ry="5.7121964" />
    <rect
       style="opacity:1;fill:#0f47af;fill-opacity:1;stroke:#242728;stroke-width:5.58752421999999970;stroke-miterlimit:4;stroke-dasharray:none;stroke-opacity:1"
       id="rect2588"
       width="74.063187"
       height="13.605331"
       x="282.96841"
       y="302.22736"
       ry="5.3165488" />
    <path
       style="opacity:1;fill:#0f47af;fill-opacity:1;stroke:#242728;stroke-width:5.58752421999999970;stroke-miterlimit:4;stroke-opacity:1;stroke-dasharray:none"
       d="M 314.988,315.90652 C 314.92088,338.38672 264.51925,405.11793 319.988,444.96904 C 370.51925,404.89328 325.62708,338.58236 324.988,315.90652 L 314.988,315.90652 z"
       id="path2586"
       sodipodi:nodetypes="cccc" />
    <path
       style="opacity:1;fill:#0f47af;fill-opacity:1;stroke:#242728;stroke-width:5.58752421999999970;stroke-miterlimit:4;stroke-opacity:1;stroke-dasharray:none"
       d="M 328.01818,315.90652 C 345.74871,433.50295 467.53936,392.19223 402.53327,303.00004 C 402.73603,353.87697 350.76917,356.94169 338.01818,315.90652 L 328.01818,315.90652 z"
       id="path2594"
       sodipodi:nodetypes="cccc" />
    <path
       style="opacity:1;fill:#0f47af;fill-opacity:1;stroke:#242728;stroke-width:5.58752421999999970;stroke-miterlimit:4;stroke-opacity:1;stroke-dasharray:none"
       d="M 310.51403,315.90652 C 292.7835,433.50295 170.99285,392.19223 235.99894,303.00004 C 235.79618,353.87697 287.76304,356.94169 300.51403,315.90652 L 310.51403,315.90652 z"
       id="path2596"
       sodipodi:nodetypes="cccc" />
    <path
       style="opacity:1;fill:#0f47af;fill-opacity:1;stroke:#242728;stroke-width:5.58752421999999970;stroke-miterlimit:4;stroke-opacity:1;stroke-dasharray:none"
       d="M 331.50309,273.15602 C 365.41129,98.355008 531.49156,165.06952 416.988,273.00004 C 417.19076,222.12311 354.25408,232.12085 341.50309,273.15602 L 331.50309,273.15602 z"
       id="path2598"
       sodipodi:nodetypes="cccc" />
    <path
       style="opacity:1;fill:#0f47af;fill-opacity:1;stroke:#242728;stroke-width:5.58752421999999970;stroke-miterlimit:4;stroke-opacity:1;stroke-dasharray:none"
       d="M 210,30.000061 C 175.68561,93.893681 167.52038,126.09584 166.875,155.00006 C 167.9604,185.5583 175.47255,216.83883 204,283.15625 L 216,283.15625 C 242.7122,219.07983 253.14185,185.13326 251.344,155.00006 C 249.98939,121.8689 242.37822,94.539071 210,30.000061 z"
       transform="translate(109.988,-10.000026)"
       id="path2592"
       sodipodi:nodetypes="cccccc" />
    <path
       style="opacity:1;fill:#0f47af;fill-opacity:1;stroke:#242728;stroke-width:5.58752421999999970;stroke-miterlimit:4;stroke-opacity:1;stroke-dasharray:none"
       d="M 310.22726,273.15602 C 276.31906,98.355008 106.75388,165.06952 221.25744,273.00004 C 221.05468,222.12311 287.47627,232.12085 300.22726,273.15602 L 310.22726,273.15602 z"
       id="path2600"
       sodipodi:nodetypes="cccc" />
  </g>
</svg>

<svg xmlns="http://www.w3.org/2000/svg" width="405" height="466" version="1.0"><path style="opacity:1;fill:#fcdd09;fill-opacity:1;fill-rule:nonzero;stroke:none;stroke-width:5;stroke-linecap:butt;stroke-linejoin:miter;marker:none;marker-start:none;marker-mid:none;marker-end:none;stroke-miterlimit:4;stroke-dasharray:none;stroke-dashoffset:0;stroke-opacity:1;visibility:visible;display:inline;overflow:visible;enable-background:accumulate" d="m3.498 3.5-.998 179h400V3.5H3.498z"/><path style="opacity:1;fill:#e83629;fill-opacity:1;fill-rule:nonzero;stroke:#000;stroke-width:3;stroke-linecap:butt;stroke-linejoin:miter;marker:none;marker-start:none;marker-mid:none;marker-end:none;stroke-miterlimit:4;stroke-dasharray:none;stroke-dashoffset:0;stroke-opacity:1;visibility:visible;display:inline;overflow:visible;enable-background:accumulate" d="M183.5 3.5v70H2.5v34h181v76h36v-76h183v-34h-183v-70h-36z"/><path style="opacity:1;fill:#fff;fill-opacity:1;fill-rule:nonzero;stroke:none;stroke-width:5;stroke-linecap:butt;stroke-linejoin:miter;marker:none;marker-start:none;marker-mid:none;marker-end:none;stroke-miterlimit:4;stroke-dasharray:none;stroke-dashoffset:0;stroke-opacity:1;visibility:visible;display:inline;overflow:visible;enable-background:accumulate" d="M3.498 182.5 2.5 302.85c0 89 89.476 160.65 200 160.65s200-71.65 200-160.65V182.5H3.498z"/><path style="opacity:1;fill:#0f47af;fill-opacity:1;fill-rule:nonzero;stroke:#000;stroke-width:3;stroke-linecap:butt;stroke-linejoin:miter;marker:none;marker-start:none;marker-mid:none;marker-end:none;stroke-miterlimit:4;stroke-dasharray:none;stroke-dashoffset:0;stroke-opacity:1;visibility:visible;display:inline;overflow:visible;enable-background:accumulate" d="M137.5 163.5c-33.763-.032-36.237 17.032-70 17-32.004-.03-35.924-15.231-65-16.844v33c29.076 1.613 32.996 16.814 65 16.844 33.763.032 36.237-17.032 70-17 33.763.032 31.237 16.968 65 17 33.763.032 36.237-17.032 70-17 33.763.032 31.237 16.968 65 17 32.005.03 35.924-15.305 65-16.875v-33c-29.076 1.57-32.995 16.905-65 16.875-33.763-.032-31.237-16.968-65-17-33.763-.032-36.237 17.032-70 17-33.763-.032-31.237-16.968-65-17z"/><path style="opacity:1;fill:none;fill-opacity:1;fill-rule:nonzero;stroke:#000;stroke-width:5;stroke-linecap:butt;stroke-linejoin:miter;marker:none;marker-start:none;marker-mid:none;marker-end:none;stroke-miterlimit:4;stroke-dasharray:none;stroke-dashoffset:0;stroke-opacity:1;visibility:visible;display:inline;overflow:visible;enable-background:accumulate" d="m3.498 2.5-.998 300c0 89.194 89.476 161 200 161s200-71.806 200-161V2.5H3.498z"/><g transform="matrix(.5739 0 0 .5023 19.355 216.722)"><rect style="opacity:1;fill:#0f47af;fill-opacity:1;stroke:#242728;stroke-width:5.5875242199999997;stroke-miterlimit:4;stroke-dasharray:none;stroke-opacity:1" width="74.063" height="13.605" x="282.968" y="273.227" ry="5.317"/><rect style="opacity:1;fill:#0f47af;fill-opacity:1;stroke:#242728;stroke-width:5.5875242199999997;stroke-miterlimit:4;stroke-dasharray:none;stroke-opacity:1" width="87.634" height="14.618" x="276.183" y="287.198" ry="5.712"/><rect style="opacity:1;fill:#0f47af;fill-opacity:1;stroke:#242728;stroke-width:5.5875242199999997;stroke-miterlimit:4;stroke-dasharray:none;stroke-opacity:1" width="74.063" height="13.605" x="282.968" y="302.227" ry="5.317"/><path style="opacity:1;fill:#0f47af;fill-opacity:1;stroke:#242728;stroke-width:5.5875242199999997;stroke-miterlimit:4;stroke-opacity:1;stroke-dasharray:none" d="M314.988 315.907c-.067 22.48-50.469 89.21 5 129.062 50.531-40.076 5.64-106.387 5-129.062h-10z"/><path style="opacity:1;fill:#0f47af;fill-opacity:1;stroke:#242728;stroke-width:5.5875242199999997;stroke-miterlimit:4;stroke-opacity:1;stroke-dasharray:none" d="M328.018 315.907c17.73 117.596 139.521 76.285 74.515-12.907.203 50.877-51.764 53.942-64.515 12.907h-10zM310.514 315.907c-17.73 117.596-139.521 76.285-74.515-12.907-.203 50.877 51.764 53.942 64.515 12.907h10zM331.503 273.156C365.411 98.355 531.492 165.07 416.988 273c.203-50.877-62.734-40.88-75.485.156h-10z"/><path style="opacity:1;fill:#0f47af;fill-opacity:1;stroke:#242728;stroke-width:5.5875242199999997;stroke-miterlimit:4;stroke-opacity:1;stroke-dasharray:none" d="M210 30c-34.314 63.894-42.48 96.096-43.125 125 1.085 30.558 8.598 61.839 37.125 128.156h12c26.712-64.076 37.142-98.023 35.344-128.156-1.355-33.131-8.966-60.46-41.344-125z" transform="translate(109.988 -10)"/><path style="opacity:1;fill:#0f47af;fill-opacity:1;stroke:#242728;stroke-width:5.5875242199999997;stroke-miterlimit:4;stroke-opacity:1;stroke-dasharray:none" d="M310.227 273.156C276.32 98.355 106.754 165.07 221.257 273c-.202-50.877 66.22-40.88 78.97.156h10z"/></g></svg>
